X:1

T:Whipple’s Hornpipe

M:2/4

L:1/8

R:Hornpipe

S:White’s Unique Collection (1896), No. 132

Z:AK/Fiddler’s Companion

K:B_

F | F/B/B/c/ B/d/f/g/ | (f/d/)b/g/ (g/f/)d/f/ | g/f/d/B/ c/B/G/A/ | (B/c/)B/G/ (G/F/)F/F/ |
F/B/B/c/ B/d/f/g/ | (f/d/)b/g/ (g/f/)d/f/ | (g/f/)b/g/ (g/f/)d/f/ | b/e/c/A/ [DB] :|
|: (3F/G/A/ | B(d/f/) b/a/g/f/ | (d/f/)(b/a/) g/f/e/d/ | e(e/d/) c(c/B/) | A/c/B/G/ F/D/E/C/ |

(B,/D/)(F/B/) B/d/c/d/ | B/d/f/e/ g/e/c/A/ | (B/d/)f/b/ (g/e/)c/A/ | B[DB][DB] :|

 

WHIRLIGIG, THE. AKA and see "Woodicock." English, Country Dance Tune (6/8 time). D Minor. Standard tuning. ABBA (Sharp): ABBCBBC (Barnes, Raven). The melody was published in Playford's English Dancing Master (1650), “to the tune of ‘Woodicock’.” Barnes (English Country Dance Tunes), 1986. Raven (English Country Dance Tunes), 1984; pg. 38. Sharp (Country Dance Tunes), 1909/1994; pg. 43. Familiar Records FAM 47, Pyewackett ‑ "7 to Midnight" (1985. Appears as "Woodicock").

